src/images/instagram.svg

<svg width="40" height="41" viewBox="0 0 40 41" fill="none" xmlns="http://www.w3.org/2000/svg">
<rect y="0.523926" width="40" height="40" rx="5" fill="#FFCC29"/>
<path d="M19.75 16.5317C22.2109 16.5317 24.2422 18.563 24.2422 21.0239C24.2422 23.5239 22.2109 25.5161 19.75 25.5161C17.25 25.5161 15.2578 23.5239 15.2578 21.0239C15.2578 18.563 17.25 16.5317 19.75 16.5317ZM19.75 23.9536C21.3516 23.9536 22.6406 22.6646 22.6406 21.0239C22.6406 19.4224 21.3516 18.1333 19.75 18.1333C18.1094 18.1333 16.8203 19.4224 16.8203 21.0239C16.8203 22.6646 18.1484 23.9536 19.75 23.9536ZM25.4531 16.3755C25.4531 15.7896 24.9844 15.3208 24.3984 15.3208C23.8125 15.3208 23.3438 15.7896 23.3438 16.3755C23.3438 16.9614 23.8125 17.4302 24.3984 17.4302C24.9844 17.4302 25.4531 16.9614 25.4531 16.3755ZM28.4219 17.4302C28.5 18.8755 28.5 23.2114 28.4219 24.6567C28.3438 26.063 28.0312 27.2739 27.0156 28.3286C26 29.3442 24.75 29.6567 23.3438 29.7349C21.8984 29.813 17.5625 29.813 16.1172 29.7349C14.7109 29.6567 13.5 29.3442 12.4453 28.3286C11.4297 27.2739 11.1172 26.063 11.0391 24.6567C10.9609 23.2114 10.9609 18.8755 11.0391 17.4302C11.1172 16.0239 11.4297 14.7739 12.4453 13.7583C13.5 12.7427 14.7109 12.4302 16.1172 12.3521C17.5625 12.2739 21.8984 12.2739 23.3438 12.3521C24.75 12.4302 26 12.7427 27.0156 13.7583C28.0312 14.7739 28.3438 16.0239 28.4219 17.4302ZM26.5469 26.1802C27.0156 25.0474 26.8984 22.313 26.8984 21.0239C26.8984 19.7739 27.0156 17.0396 26.5469 15.8677C26.2344 15.1255 25.6484 14.5005 24.9062 14.2271C23.7344 13.7583 21 13.8755 19.75 13.8755C18.4609 13.8755 15.7266 13.7583 14.5938 14.2271C13.8125 14.5396 13.2266 15.1255 12.9141 15.8677C12.4453 17.0396 12.5625 19.7739 12.5625 21.0239C12.5625 22.313 12.4453 25.0474 12.9141 26.1802C13.2266 26.9614 13.8125 27.5474 14.5938 27.8599C15.7266 28.3286 18.4609 28.2114 19.75 28.2114C21 28.2114 23.7344 28.3286 24.9062 27.8599C25.6484 27.5474 26.2734 26.9614 26.5469 26.1802Z" fill="#C10023"/>
</svg>

<svg xmlns="http://www.w3.org/2000/svg" width="40" height="41" fill="none"><rect width="40" height="40" y=".524" fill="#FFCC29" rx="5"/><path fill="#C10023" d="M19.75 16.532c2.46 0 4.492 2.031 4.492 4.492 0 2.5-2.031 4.492-4.492 4.492a4.47 4.47 0 0 1-4.492-4.492 4.493 4.493 0 0 1 4.492-4.492m0 7.422c1.602 0 2.89-1.29 2.89-2.93a2.884 2.884 0 0 0-2.89-2.89c-1.64 0-2.93 1.288-2.93 2.89 0 1.64 1.328 2.93 2.93 2.93m5.703-7.579a1.05 1.05 0 0 0-1.055-1.054 1.05 1.05 0 0 0-1.054 1.054 1.05 1.05 0 0 0 1.054 1.055 1.05 1.05 0 0 0 1.055-1.055m2.969 1.055c.078 1.445.078 5.781 0 7.227-.078 1.406-.39 2.617-1.406 3.672-1.016 1.015-2.266 1.328-3.672 1.406-1.446.078-5.782.078-7.227 0-1.406-.078-2.617-.39-3.672-1.406-1.015-1.055-1.328-2.266-1.406-3.672-.078-1.446-.078-5.782 0-7.227.078-1.406.39-2.656 1.406-3.672 1.055-1.015 2.266-1.328 3.672-1.406 1.445-.078 5.781-.078 7.227 0 1.406.078 2.656.39 3.672 1.406 1.015 1.016 1.328 2.266 1.406 3.672m-1.875 8.75c.469-1.133.351-3.867.351-5.156 0-1.25.118-3.984-.351-5.156-.313-.742-.899-1.367-1.64-1.64-1.173-.47-3.907-.352-5.157-.352-1.29 0-4.023-.118-5.156.351a3.01 3.01 0 0 0-1.68 1.64c-.469 1.173-.351 3.907-.351 5.157 0 1.289-.118 4.023.351 5.156a2.96 2.96 0 0 0 1.68 1.68c1.133.469 3.867.351 5.156.351 1.25 0 3.984.118 5.156-.351.742-.313 1.367-.899 1.64-1.68"/></svg>
